!!!SOCIAL_FUNCTION:	deer dance songs
!!!PDT:	1932
!!!OTL: No_60_The_Water_Bug_on_the_Mountain.krn
!!!REG: Southwest
!!!LANG: Non-Tone
!!!LING_GROUP: Yuman-Cochimi
**kern	**kern
*staff2	*staff1
=1-	=1-
*clefF4	*clefF4
*k[f#c#g#d#a#]	*k[f#c#g#d#a#]
*M2/4	*M2/4
4GG#/	4r
4GG#/	8r
.	8G#\
=2	=2
4GG#/	4.G#\
4GG#/	.
.	8G#\
=3	=3
4GG#/	4d#\
4GG#/	8d#\L
.	8A#\J
=4	=4
4GG#/	4B\
4GG#/	4B\
=5	=5
4GG#/	4G#\
4GG#/	8r
.	8A#\
=6	=6
4GG#/	8B\L
.	8A#\J
4r	4G#\
=7	=7
4GG#/	4A#\
4GG#/	8A#\L
.	8E\J
=8	=8
4GG#/	4G#\
4GG#/	8G#\L
.	8E\J
=9||	=9||
*M3/4	*M3/4
4GG#/	4G#\
4GG#/	4.r
4r	.
.	8E\
=10||	=10||
*M2/4	*M2/4
4GG#/	4A#\
4GG#/	4G#\
=11	=11
4GG#/	4A#\
4GG#/	8A#\L
.	8E\J
=12||	=12||
*M3/4	*M3/4
4GG#/	4G#\
4GG#/	4G#\
4r	4r
=13||	=13||
*M2/4	*M2/4
4GG#/	4G#\
4GG#/	4G#\
=14	=14
4GG#/	8r
.	8E\
4GG#/	8G#\L
.	8E\J
=15||	=15||
*M3/4	*M3/4
4GG#/	4G#\
4GG#/	4G#\
4GG#/	8G#\
.	8r
=16||	=16||
*M2/4	*M2/4
4GG#/	4G#\
4GG#/	4G#\
=17	=17
4GG#/	2G#\
4GG#/	.
=18	=18
2r	2r
=19	=19
4GG#/	4r
4GG#/	8r
.	8G#\
=20	=20
4GG#/	4B\
4GG#/	4A#\
=21	=21
4GG#/	4B\
4GG#/	8B\L
.	8G#\J
=22	=22
4GG#/	4A#\
4GG#/	8A#\L
.	8E\J
=23	=23
4GG#/	8G#\
.	8r
4r	4A#\
=24	=24
4GG#/	4A#\
4GG#/	4G#\
=25	=25
4GG#/	4A#\
4GG#/	8A#\L
.	8E\J
=26	=26
4GG#/	4G#\
4GG#/	8G#\L
.	8E\J
=27||	=27||
*M3/4	*M3/4
4GG#/	4G#\
4GG#/	4.r
4r	.
.	8E\
=28||	=28||
*M2/4	*M2/4
4GG#/	4A#\
4GG#/	4G#\
=29	=29
4GG#/	8A#\L
.	8A#\J
4GG#/	4G#\
=30||	=30||
*M3/4	*M3/4
4GG#/	4G#\
4GG#/	4G#\
4r	4r
=31||	=31||
*M2/4	*M2/4
4GG#/	4G#\
4GG#/	4G#\
=32	=32
4r	8r
.	8E\
4GG#/	8G#\L
.	8E\J
=33||	=33||
*M3/4	*M3/4
4GG#/	4G#\
4GG#/	4G#\
4GG#/	8G#\
.	8r
=34||	=34||
*M2/4	*M2/4
4GG#/	4G#\
4GG#/	4G#\
=35	=35
4GG#/	2G#\
4GG#/	.
==	==
*-	*-
